tools/download-figma-icons/icons/outlined-large/parking.svg

<svg width="64" height="64" viewBox="0 0 64 64" fill="none" xmlns="http://www.w3.org/2000/svg">
<path fill-rule="evenodd" clip-rule="evenodd" d="M3 32C3 47.99 16.01 61 32 61C47.99 61 61 47.99 61 32C61 16.01 47.99 3 32 3C16.01 3 3 16.01 3 32ZM0 32C0 14.355 14.355 0 32 0C49.645 0 64 14.355 64 32C64 49.645 49.645 64 32 64C14.355 64 0 49.645 0 32ZM27.2867 33.0354C32.0137 33.1434 37.3677 33.2594 39.4697 31.3594C41.1017 29.8824 41.9997 27.9324 41.9997 25.8674C41.9997 23.8024 41.1017 21.8524 39.4697 20.3764C36.8167 17.9764 31.6237 17.9914 27.4757 18.0044C27.3928 18.0044 27.314 18.0041 27.2355 18.0039C27.1577 18.0036 27.0803 18.0034 26.9997 18.0034V33.0294L27.2867 33.0354ZM27.5081 15.0043C32.1976 14.9943 37.9793 14.982 41.4817 18.1514C43.7497 20.2034 44.9997 22.9434 44.9997 25.8674C44.9997 28.7924 43.7497 31.5324 41.4817 33.5844C39.1227 35.7174 35.0497 36.0874 30.7097 36.0874C29.6309 36.0874 28.5356 36.0638 27.4457 36.0402C27.3706 36.0386 27.2957 36.037 27.2207 36.0354C27.1837 36.0344 27.147 36.0337 27.1102 36.0329C27.0735 36.0322 27.0367 36.0314 26.9997 36.0304V51.5004C26.9997 52.3284 26.3277 53.0004 25.4997 53.0004C24.6717 53.0004 23.9997 52.3284 23.9997 51.5004V16.5004C23.9997 16.4983 24.0002 16.4962 24.0005 16.4942C24.0006 16.4932 24.0007 16.4923 24.0007 16.4914C24.0007 16.4874 23.9997 16.4844 23.9997 16.4804C24.0004 16.4406 24.0062 16.4028 24.012 16.3648C24.0143 16.3494 24.0167 16.334 24.0187 16.3184C24.0205 16.3029 24.0218 16.2873 24.0231 16.2717C24.0253 16.2441 24.0276 16.2166 24.0327 16.1904C24.0412 16.1488 24.0546 16.1101 24.0681 16.0713C24.0738 16.0551 24.0794 16.0389 24.0847 16.0224C24.09 16.0074 24.0944 15.992 24.0989 15.9767C24.1054 15.9544 24.1118 15.9322 24.1207 15.9114C24.1403 15.8649 24.1652 15.8223 24.1901 15.7799C24.1956 15.7704 24.2012 15.7609 24.2067 15.7514C24.2151 15.7376 24.2226 15.7235 24.23 15.7094C24.2393 15.6917 24.2486 15.6741 24.2597 15.6574C24.2885 15.6147 24.3226 15.576 24.3567 15.5375C24.364 15.5291 24.3714 15.5208 24.3787 15.5124C24.3879 15.5024 24.3964 15.4916 24.4049 15.4808C24.4168 15.4658 24.4287 15.4508 24.4427 15.4374C24.4849 15.3952 24.5324 15.3591 24.5795 15.3234L24.5887 15.3164C24.6007 15.3075 24.6117 15.2979 24.6225 15.2884C24.636 15.2765 24.6492 15.2649 24.6637 15.2554C24.7047 15.227 24.7494 15.2049 24.7934 15.183C24.8053 15.1772 24.8171 15.1713 24.8287 15.1654C24.8419 15.159 24.8543 15.1517 24.8668 15.1445C24.8836 15.1347 24.9003 15.1249 24.9187 15.1174C24.9719 15.0942 25.028 15.0792 25.0846 15.064C25.0939 15.0615 25.1033 15.059 25.1127 15.0564C25.1243 15.0532 25.1356 15.0494 25.1469 15.0455C25.1638 15.0398 25.1807 15.034 25.1987 15.0304C25.2957 15.0104 25.3967 15.0004 25.4997 15.0004H25.5197C26.0404 15.0071 26.5859 15.0061 27.1485 15.005C27.2537 15.0048 27.3594 15.0046 27.4657 15.0044L27.5081 15.0043Z" fill="black"/>
</svg>

<svg xmlns="http://www.w3.org/2000/svg" width="64" height="64" fill="none" viewBox="0 0 64 64"><path fill="currentColor" fill-rule="evenodd" d="M3 32c0 15.99 13.01 29 29 29s29-13.01 29-29S47.99 3 32 3 3 16.01 3 32m-3 0C0 14.355 14.355 0 32 0s32 14.355 32 32-14.355 32-32 32S0 49.645 0 32m27.287 1.035c4.727.108 10.08.224 12.183-1.676 1.632-1.477 2.53-3.427 2.53-5.492s-.898-4.015-2.53-5.49c-2.653-2.4-7.846-2.386-11.994-2.373H27v15.025zm.221-18.03c4.69-.01 10.471-.023 13.974 3.146C43.75 20.203 45 22.943 45 25.867s-1.25 5.665-3.518 7.717c-2.36 2.133-6.432 2.503-10.772 2.503-1.08 0-2.174-.023-3.264-.047l-.225-.005-.11-.002q-.056 0-.111-.003V51.5a1.5 1.5 0 0 1-3 0V16.481q.001-.06.012-.116l.007-.047.004-.046.01-.082a1 1 0 0 1 .035-.119l.017-.049.014-.045q.009-.034.022-.066.03-.069.07-.131l.016-.029.023-.042.03-.052q.044-.062.097-.12l.022-.025.026-.031a.4.4 0 0 1 .038-.044q.065-.061.136-.114l.01-.007.034-.028.04-.033q.063-.04.13-.072l.036-.018.038-.02q.024-.015.052-.028.08-.032.166-.053l.028-.008.034-.01q.025-.01.052-.016.146-.03.3-.03h.02a112 112 0 0 0 1.947.004z" clip-rule="evenodd"/></svg>
